static/img/icons8-gdpr.svg

<svg width="96" height="96" viewBox="0 0 96 96" fill="none" xmlns="http://www.w3.org/2000/svg">
<path d="M9 17.6667C9 12.9 12.9 9 17.6667 9H78.3333C83.1 9 87 12.9 87 17.6667V78.3333C87 83.1 83.1 87 78.3333 87H17.6667C12.9 87 9 83.1 9 78.3333V17.6667Z" fill="url(#paint0_linear_10_347)"/>
<path d="M56.6663 56.6667H39.333V39.3334C39.333 35.8667 41.7163 30.6667 47.9997 30.6667C54.283 30.6667 56.6663 35.8667 56.6663 39.3334V56.6667ZM43.6663 52.3334H52.333V39.3334C52.333 38.9001 52.1163 35.0001 47.9997 35.0001C43.883 35.0001 43.6663 38.9001 43.6663 39.3334V52.3334Z" fill="url(#paint1_linear_10_347)"/>
<path d="M48 15.5L49.0833 17.8833L51.9 18.3167L49.95 20.2667L50.3833 22.8667L48 21.5667L45.6167 22.8667L46.05 20.2667L44.1 18.3167L46.9167 17.8833L48 15.5ZM33.2667 19.8333L34.5667 22.2167L37.1667 22.65L35.2167 24.6L35.65 27.2L33.2667 25.9L30.8833 27.2L31.3167 24.6L29.5833 22.65L32.1833 22.2167L33.2667 19.8333ZM23.7333 29.8L24.8167 32.1833L27.4167 32.6167L25.6833 34.5667L26.1167 37.1667L23.7333 35.8667L21.35 37.1667L21.7833 34.5667L19.8333 32.6167L22.4333 32.1833L23.7333 29.8ZM72.2667 58.8333L73.5667 61.2167L76.1667 61.65L74.2167 63.6L74.65 66.2L72.2667 64.9L69.8833 66.2L70.3167 63.6L68.5833 61.65L71.1833 61.2167L72.2667 58.8333ZM62.7333 68.8L63.8167 71.1833L66.4167 71.6167L64.6833 73.5667L65.1167 76.1667L62.7333 74.8667L60.35 76.1667L60.7833 73.5667L58.8333 71.6167L61.4333 71.1833L62.7333 68.8ZM63.8167 22.2167L66.4167 22.65L64.6833 24.6L65.1167 27.2L62.7333 25.9L60.35 27.2L60.7833 24.6L58.8333 22.65L61.4333 22.2167L62.7333 19.8333L63.8167 22.2167ZM73.5667 32.1833L76.1667 32.6167L74.2167 34.5667L74.65 37.1667L72.2667 35.8667L69.8833 37.1667L70.3167 34.5667L68.5833 32.6167L71.1833 32.1833L72.2667 29.8L73.5667 32.1833ZM24.8167 61.2167L27.4167 61.65L25.6833 63.6L26.1167 66.2L23.7333 64.9L21.35 66.2L21.7833 63.6L19.8333 61.65L22.4333 61.2167L23.7333 58.8333L24.8167 61.2167ZM34.5667 71.1833L37.1667 71.6167L35.2167 73.5667L35.65 76.1667L33.2667 74.8667L30.8833 76.1667L31.3167 73.5667L29.5833 71.6167L32.1833 71.1833L33.2667 68.8L34.5667 71.1833ZM76.6 44.3167L77.9 46.7L80.5 47.1333L78.55 49.0833L78.9833 51.6833L76.6 50.3833L74.2167 51.6833L74.65 49.0833L72.9167 47.1333L75.5167 46.7L76.6 44.3167ZM19.4 44.3167L20.4833 46.7L23.0833 47.1333L21.35 49.0833L21.7833 51.6833L19.4 50.3833L17.0167 51.6833L17.45 49.0833L15.5 47.1333L18.1 46.7L19.4 44.3167ZM48 73.1333L49.0833 75.5167L51.9 75.95L49.95 77.9L50.3833 80.5L48 79.2L45.6167 80.5L46.05 77.9L44.1 75.95L46.9167 75.5167L48 73.1333Z" fill="url(#paint2_linear_10_347)"/>
<path d="M58.8333 63.1667H37.1667C35.8667 63.1667 35 62.2047 35 60.7595V43.9072C35 42.462 35.8667 41.5 37.1667 41.5H58.8333C60.1333 41.5 61 42.462 61 43.9072V60.7595C61 62.2047 60.1333 63.1667 58.8333 63.1667Z" fill="url(#paint3_linear_10_347)"/>
<path d="M48.0002 48C46.7002 48 45.8335 48.8667 45.8335 50.1667V54.5C45.8335 55.8 46.7002 56.6667 48.0002 56.6667C49.3002 56.6667 50.1668 55.8 50.1668 54.5V50.1667C50.1668 48.8667 49.3002 48 48.0002 48Z" fill="url(#paint4_linear_10_347)"/>
<defs>
<linearGradient id="paint0_linear_10_347" x1="25.5447" y1="5.76733" x2="72.596" y2="94.2583" gradientUnits="userSpaceOnUse">
<stop stop-color="#0077D2"/>
<stop offset="1" stop-color="#0B59A2"/>
</linearGradient>
<linearGradient id="paint1_linear_10_347" x1="47.9997" y1="31.3774" x2="47.9997" y2="42.0591" gradientUnits="userSpaceOnUse">
<stop stop-color="#FCFCFC"/>
<stop offset="0.658" stop-color="#F4F4F4"/>
<stop offset="0.777" stop-color="#E8E8E8"/>
<stop offset="0.89" stop-color="#D1D1D1"/>
</linearGradient>
<linearGradient id="paint2_linear_10_347" x1="31.9017" y1="17.7078" x2="82.9375" y2="113.691" gradientUnits="userSpaceOnUse">
<stop stop-color="#FFDA1C"/>
<stop offset="1" stop-color="#FEB705"/>
</linearGradient>
<linearGradient id="paint3_linear_10_347" x1="48" y1="65.8707" x2="48" y2="76.1277" gradientUnits="userSpaceOnUse">
<stop stop-color="#FCFCFC"/>
<stop offset="0.495" stop-color="#F4F4F4"/>
<stop offset="0.869" stop-color="#E8E8E8"/>
<stop offset="1" stop-color="#E8E8E8"/>
</linearGradient>
<linearGradient id="paint4_linear_10_347" x1="21.7965" y1="3.0525" x2="73.2115" y2="99.7508" gradientUnits="userSpaceOnUse">
<stop stop-color="#0077D2"/>
<stop offset="1" stop-color="#0B59A2"/>
</linearGradient>
</defs>
</svg>

<svg xmlns="http://www.w3.org/2000/svg" width="96" height="96" fill="none" viewBox="0 0 96 96"><path fill="url(#a)" d="M9 17.667C9 12.9 12.9 9 17.667 9h60.666C83.1 9 87 12.9 87 17.667v60.666C87 83.1 83.1 87 78.333 87H17.667C12.9 87 9 83.1 9 78.333z"/><path fill="url(#b)" d="M56.666 56.667H39.333V39.333c0-3.466 2.383-8.666 8.667-8.666s8.666 5.2 8.666 8.666zm-13-4.334h8.667v-13C52.333 38.9 52.116 35 48 35s-4.334 3.9-4.334 4.333z"/><path fill="url(#c)" d="m48 15.5 1.083 2.383 2.817.434-1.95 1.95.433 2.6-2.383-1.3-2.383 1.3.433-2.6-1.95-1.95 2.817-.434zm-14.733 4.333 1.3 2.384 2.6.433-1.95 1.95.433 2.6-2.383-1.3-2.384 1.3.434-2.6-1.734-1.95 2.6-.433zM23.733 29.8l1.084 2.383 2.6.434-1.734 1.95.434 2.6-2.384-1.3-2.383 1.3.433-2.6-1.95-1.95 2.6-.434zm48.534 29.033 1.3 2.384 2.6.433-1.95 1.95.433 2.6-2.383-1.3-2.384 1.3.434-2.6-1.734-1.95 2.6-.433zM62.733 68.8l1.084 2.383 2.6.434-1.734 1.95.434 2.6-2.384-1.3-2.383 1.3.433-2.6-1.95-1.95 2.6-.434zm1.084-46.583 2.6.433-1.734 1.95.434 2.6-2.384-1.3-2.383 1.3.433-2.6-1.95-1.95 2.6-.433 1.3-2.384zm9.75 9.966 2.6.434-1.95 1.95.433 2.6-2.383-1.3-2.384 1.3.434-2.6-1.734-1.95 2.6-.434 1.084-2.383zm-48.75 29.034 2.6.433-1.734 1.95.434 2.6-2.384-1.3-2.383 1.3.433-2.6-1.95-1.95 2.6-.433 1.3-2.384zm9.75 9.966 2.6.434-1.95 1.95.433 2.6-2.383-1.3-2.384 1.3.434-2.6-1.734-1.95 2.6-.434 1.084-2.383zM76.6 44.317l1.3 2.383 2.6.433-1.95 1.95.433 2.6-2.383-1.3-2.383 1.3.433-2.6-1.733-1.95 2.6-.433zm-57.2 0 1.083 2.383 2.6.433-1.733 1.95.433 2.6-2.383-1.3-2.383 1.3.433-2.6-1.95-1.95 2.6-.433zM48 73.133l1.083 2.384 2.817.433-1.95 1.95.433 2.6L48 79.2l-2.383 1.3.433-2.6-1.95-1.95 2.817-.433z"/><path fill="url(#d)" d="M58.833 63.167H37.167c-1.3 0-2.167-.962-2.167-2.407V43.907c0-1.445.867-2.407 2.167-2.407h21.666c1.3 0 2.167.962 2.167 2.407V60.76c0 1.445-.867 2.407-2.167 2.407"/><path fill="url(#e)" d="M48 48c-1.3 0-2.166.867-2.166 2.167V54.5c0 1.3.866 2.167 2.166 2.167s2.167-.867 2.167-2.167v-4.333C50.167 48.867 49.3 48 48 48"/><defs><linearGradient id="a" x1="25.545" x2="72.596" y1="5.767" y2="94.258" gradientUnits="userSpaceOnUse"><stop stop-color="#0077d2"/><stop offset="1" stop-color="#0b59a2"/></linearGradient><linearGradient id="b" x1="48" x2="48" y1="31.377" y2="42.059" gradientUnits="userSpaceOnUse"><stop stop-color="#fcfcfc"/><stop offset=".658" stop-color="#f4f4f4"/><stop offset=".777" stop-color="#e8e8e8"/><stop offset=".89" stop-color="#d1d1d1"/></linearGradient><linearGradient id="c" x1="31.902" x2="82.938" y1="17.708" y2="113.691" gradientUnits="userSpaceOnUse"><stop stop-color="#ffda1c"/><stop offset="1" stop-color="#feb705"/></linearGradient><linearGradient id="d" x1="48" x2="48" y1="65.871" y2="76.128" gradientUnits="userSpaceOnUse"><stop stop-color="#fcfcfc"/><stop offset=".495" stop-color="#f4f4f4"/><stop offset=".869" stop-color="#e8e8e8"/><stop offset="1" stop-color="#e8e8e8"/></linearGradient><linearGradient id="e" x1="21.797" x2="73.212" y1="3.053" y2="99.751" gradientUnits="userSpaceOnUse"><stop stop-color="#0077d2"/><stop offset="1" stop-color="#0b59a2"/></linearGradient></defs></svg>
